X: 21442
T: A GUID NEW YEAR -- Song.*
B: K\"ohler's Violin Repository, v.2, 1885 p.144 #2
F: http://www.archive.org/details/klersviolinrepos02rugg
Z: 2012 John Chambers <jc:trillian.mit.edu>
M: C
L: 1/8
Q: "Moderato."
K: D
uA2 |\
d2f2 d3A | (GF)(ED) A3A | B2G2 d3F | "_>"(F4 E) z2 uA |\
d2f2 d3A | (GF)(ED) A3A | Bd3 c2e2 | d6 c2 |
d3c B2A2 | G3G F2F2 | B3c d2c2 | B4 z2uc2 |\
d3c B2A2 | ^G2B2 e3d | ce3 (e>d) (B>c) | A6 :]
"^Chorus"uA2 |\
d2f2 d3A | (GF)(ED) A3A | BG3 d3F | "_>"(F4 E) z2 uA |\
d2f2 d3A | (GF)(ED) A3A | Bd3 c2e2 | Hd6 "_D.C."|]
% %center (To be continued.)
%%center * This song may be had at Messrs. Kohler & Son, 11 North Bridge, Edinburgh. Price 2d.

%%sep 2 1 500

